X: 11
T: Devil's Dream, The
Z: leprecawn
S: https://thesession.org/tunes/259#setting51537
R: reel
M: 4/4
L: 1/8
K: Amaj
e2|:"A"agae agae|agae fedc|"Bm"dfBf dfBf|dfBf agfe|
"A"agae agae|agae fedc|"Bm"dfed "A"cBAc|"E"BA^GB "A"A2 e2:|
|:"A"ceAe ceAe|ceAe fedc|"Bm"dfBf dfBf|dfBf agfe|"A"
"A"ceAe ceAe|ceAe fedc|"Bm"dfed "A"cBAc|1 "E"BA^GB A2 "A" e2:|2 "E"BA^GB "A"A4||

%-------------------- TUNE SEPARATOR --------------------%

